!!!OTL: DU LIEBER FROMMER HEILGER CHRIST
!!!ARE: Europa, Mitteleuropa, Deutschland
!!!SCT: B0641
!!!YEM: Copyright 1995, estate of Helmut Schaffrath.
**kern
*ICvox
*Ivox
*M2/4
*k[f#]
*G:
{8g
=1
4b
4g
=2
4cc
4b
=3
8a
8g
8a
8b
=4
4g
8r}
{8d
=5
4g
4b
=6
4.a
8f#
=7
8a
8g
8f#
8e
=8
4d
8r}
{8d
=9
4.cc
8a
=10
8g
8f#
8e
8d
=11
4g
4b
=12
4.dd}
{8cc
=13
4b
4dd
=14
8dd
8cc
8b
8a
=15
4g
4f#
=16
4g
8r}
==
!!!AGN: Kinder -, Weihnachts - Lied, religioes
!!!ONB: ESAC (Essen Associative Code) Database: BOEHME
!!!AMT: simple duple
!!!AIN: vox
!!!EED: Helmut Schaffrath
!!!EEV: 1.0
*-
